X:1
T:Title
%%score { ( 1 3 4 ) | ( 2 5 ) }
L:1/8
M:4/4
K:Db
V:1 treble nm="Grand Piano"
V:3 treble 
V:4 treble 
V:2 bass 
V:5 bass 
V:1
 z4 z2 z[Q:1/4=100] D | F>F E>D A2 F>F |[M:7/8] [CE]>[CE][CA]>[CG] [DF]3 |[M:1/8] [FA] | %4
[M:4/4] B>c d>B [FA]2 [DF]>[Fd] |[M:3/4] [Ec]>[Fd] [Ec]>[DB] [CA]2 |[M:1/4] [GA]>[GA] | %7
[M:4/4] d4 A3 A | B>c d>B [FA]>F E>D | F>[FA] [Fd]>[GB] [FA]2 [A,DF]2 | %10
 [A,CE]2 [CA]2 [CA]2 [A,FA]>[A,GA] | d4 A3 A | B>c d>B [FA]>F E>D | F2 [DFA]2 [EGd]2 [EGc]2 | %14
[M:7/8] d-d-d- d- d3 |] %15
V:2
 z4 z2 z [D,F,] | [D,A,D]>[D,A,D] [D,G,D]>[D,F,] [D,F,D]2 [D,A,D]>[D,A,D] | %2
[M:7/8] [A,,A,]>[A,,A,][A,,E,]>[A,,A,] [D,A,]3 |[M:1/8] [D,D] | %4
[M:4/4] [G,DG]>[G,CG] [G,B,G]>[G,DG] [D,D]2 [D,A,]>[D,G,] | %5
[M:3/4] [E,A,]>[E,A,] [E,=G,]>[E,G,] [A,,A,]2 |[M:1/4] [A,,A,]>[A,,A,] | %7
[M:4/4] [D,A,]>[D,A,] [D,A,]>[D,A,] [D,D]2 [D,D]>[D,D] | %8
 [G,DG]>[G,CG] [G,B,G]>[G,DG] [D,D]>[D,A,D] [D,G,D]>[D,F,] | %9
 [D,A,D]>[D,D] [D,A,]>[D,D] [D,D]2 D,2 | z4 A,2 z2 | %11
 [D,A,]>[D,A,] [D,A,]>[D,A,] [D,D]2 [D,D]>[D,D] | %12
 [G,DG]>[G,CG] [G,B,G]>[G,DG] [D,D]>[D,A,D] [D,G,D]>[D,F,] | [D,A,D]2 D,2 A,2 A,2 | %14
[M:7/8] z2 B,>B, A,3 |] %15
V:3
 x8 | x8 |[M:7/8] x7 |[M:1/8] x |[M:4/4] x8 |[M:3/4] x6 |[M:1/4] x2 |[M:4/4] F>F F>F F2 z z/ F/ | %8
 x8 | x8 | x8 | F>F F>F F2 z z/ F/ | x8 | x8 |[M:7/8] [DF]2 G>G F3 |] %15
V:4
 x8 | x8 |[M:7/8] x7 |[M:1/8] x |[M:4/4] x8 |[M:3/4] x6 |[M:1/4] x2 |[M:4/4] z4 z2 F2 | x8 | x8 | %10
 x8 | z4 z2 F2 | x8 | x8 |[M:7/8] x7 |] %15
V:5
 x8 | x8 |[M:7/8] x7 |[M:1/8] x |[M:4/4] x8 |[M:3/4] x6 |[M:1/4] x2 |[M:4/4] x8 | x8 | x8 | %10
 A,,2 A,>A, z G, F,>E, | x8 | x8 | x8 |[M:7/8] D,-D,-D,- D,- D,3 |] %15

